icons/editor/file-remove.svg

<svg width="32" height="32" viewBox="0 0 32 32" fill="none" xmlns="http://www.w3.org/2000/svg">
<path fill-rule="evenodd" clip-rule="evenodd" d="M6 4C6 2.89543 6.89543 2 8 2H17.5858C18.1162 2 18.6249 2.21071 19 2.58579L25.4142 9C25.7893 9.37507 26 9.88378 26 10.4142V28C26 29.1046 25.1046 30 24 30H8C6.89543 30 6 29.1046 6 28V4ZM8 4H16V10C16 11.1046 16.8954 12 18 12H24V28H8V4ZM18 4.41421L23.5858 10H18V4.41421ZM11 19V21H21V19H11Z" fill="black"/>
</svg>

<svg viewBox="0 0 32 32" xmlns="http://www.w3.org/2000/svg"><path fill-rule="evenodd" d="M6 4a2 2 0 012-2h9.586A2 2 0 0119 2.586L25.414 9A2 2 0 0126 10.414V28a2 2 0 01-2 2H8a2 2 0 01-2-2V4zm2 0h8v6a2 2 0 002 2h6v16H8V4zm10 .414L23.586 10H18V4.414zM11 19v2h10v-2H11z"/></svg>
